X:1
T:Title
%%score { ( 1 3 ) | ( 2 4 ) }
L:1/8
Q:1/4=100
M:4/4
K:G
V:1 treble nm="Grand Piano"
V:3 treble 
V:2 bass 
V:4 bass 
V:1
 [B,D]>[B,D] [DG]>A B>B A>[DG] | [CA]2 [EG]2 E4 | D>D [DG]>[DA] [DB]2 [DG]2 | z4 A4 | %4
w: Herbert~G.~Tovey * * * * * * *||||
 D>D [DG]>A B>B [CA]>[B,G] | [EA]2 [EB]2 [Ec]4 | [Gd]>[GB] [B,G]>[^CGA] [DGB]2 [B,DG]2 | [CA]4 z4 | %8
w: ||||
 [Fd]2 [CFA]2 [EFc]>[EFc] [DFB]>[CFA] | [B,G]2 [CGA]2 [DGB]4 | %10
w: ||
 [Fd]2 [CFA]2 [EFc]>[EFc] [DFB]>[CFA] | G2 A2 B4 | B2 B2 c>c c>c |[M:5/4] d2 d2 e3 [Ge]3 | %14
w: ||||
[M:4/4] [DGd]>[DGB] [B,G]>[^CGA] [DGB]>[DGB] [=CFA]>[CDA] | [B,DG]6 z2 |] %16
w: ||
V:2
 [G,,G,]>[G,,G,] [B,,G,]>[D,F,D] [G,D]>[G,D] [D,F,D]>[B,,G,] | [C,E,]2 [C,C]2 [C,G,C]4 | %2
 [G,B,]>[G,B,] [B,,G,]>[A,,F,] [G,,G,]2 [B,,G,]2 | z4 D2 z2 | %4
 [G,B,]>[G,B,] [B,,G,]>[D,F,D] [G,D]>[G,D] [G,,G,]>[G,,G,] | [C,G,]2 [B,,^G,]2 [A,,A,]4 | %6
 [B,,G,]>[D,G,] G,>E, D,2 D,2 | z2[K:treble] F2 G,4 | [D,A,]2 D,2 D,>D, D,>D, | G,2 G,2 G,2 D,2 | %10
 [D,A,]2 D,2 D,>D, D,>D, | [G,B,]2[K:treble] [G,CG]2 [G,DG]4 | %12
 [G,DG]2 [G,DG]2 [A,DF]>[A,DF] [A,DF]>[A,DA] |[M:5/4] [B,DG]2 [B,DG]2 [CG]3[K:bass] [C,C]3 | %14
[M:4/4] B,,>G,, E,>^D, =D,>D, D,>D, | G,6 z2 |] %16
V:3
 x8 | x8 | x8 | B4 z2 C2 | x8 | x8 | x8 | D2 z2 [B,G]4 | x8 | x8 | x8 | x8 | x8 |[M:5/4] x10 | %14
[M:4/4] x8 | x8 |] %16
V:4
 x8 | x8 | x8 | [D,G,D]4 [D,F,]4 | x8 | x8 | x8 | D,4[K:treble] z4 | x8 | x8 | x8 | %11
 x2[K:treble] x6 | x8 |[M:5/4] x7[K:bass] x3 |[M:4/4] x8 | x8 |] %16

